assets/icons/terminal-filled.svg

<?xml version="1.0" encoding="UTF-8" standalone="no"?>
<svg
   viewBox="0 0 24 24"
   height="24"
   width="24"
   version="1.1"
   id="svg8"
   sodipodi:docname="terminal-filled.svg"
   inkscape:version="1.2 (1:1.2.1+202207142221+cd75a1ee6d)"
   xmlns:inkscape="http://www.inkscape.org/namespaces/inkscape"
   xmlns:sodipodi="http://sodipodi.sourceforge.net/DTD/sodipodi-0.dtd"
   xmlns="http://www.w3.org/2000/svg"
   xmlns:svg="http://www.w3.org/2000/svg">
  <defs
     id="defs12" />
  <sodipodi:namedview
     id="namedview10"
     pagecolor="#ffffff"
     bordercolor="#666666"
     borderopacity="1.0"
     inkscape:pageshadow="2"
     inkscape:pageopacity="0.0"
     inkscape:pagecheckerboard="0"
     showgrid="true"
     inkscape:snap-page="true"
     inkscape:zoom="19.79899"
     inkscape:cx="14.293658"
     inkscape:cy="8.6873118"
     inkscape:window-width="1920"
     inkscape:window-height="1043"
     inkscape:window-x="0"
     inkscape:window-y="0"
     inkscape:window-maximized="1"
     inkscape:current-layer="svg8"
     inkscape:showpageshadow="2"
     inkscape:deskcolor="#d1d1d1">
    <inkscape:grid
       type="xygrid"
       id="grid823" />
    <inkscape:grid
       type="xygrid"
       id="grid825"
       dotted="true"
       spacingx="0.5"
       spacingy="0.5"
       empspacing="10" />
  </sodipodi:namedview>
  <path
     id="path860"
     style="color:#000000;fill:#808080"
     d="M 5.4550781 4.0019531 C 4.4865012 4.0109331 3.7372567 4.0752235 3.1171875 4.4472656 C 2.703808 4.6952935 2.3972492 5.1031751 2.2285156 5.609375 C 2.0597825 6.1155749 2 6.7241793 2 7.5019531 L 2 16.501953 C 2 17.279726 2.0597822 17.888333 2.2285156 18.394531 C 2.3972492 18.900733 2.703808 19.308612 3.1171875 19.556641 C 3.9439465 20.052695 5.0000075 20.001953 6.5 20.001953 L 17.5 20.001953 C 18.999994 20.001953 20.056054 20.052692 20.882812 19.556641 C 21.296194 19.308612 21.602754 18.900733 21.771484 18.394531 C 21.940218 17.888333 22 17.279726 22 16.501953 L 22 7.5019531 C 22 6.7241793 21.94022 6.1155749 21.771484 5.609375 C 21.602754 5.1031751 21.296194 4.6952935 20.882812 4.4472656 C 20.056055 3.9512103 18.999994 4.0019531 17.5 4.0019531 L 6.5 4.0019531 C 6.125002 4.0019531 5.7779372 3.9989631 5.4550781 4.0019531 z M 6.4804688 8.0019531 A 0.5 0.5 0 0 1 6.7773438 8.0859375 L 9.7773438 10.085938 A 0.50005 0.50005 0 0 1 9.7773438 10.917969 L 6.7773438 12.917969 A 0.5 0.5 0 0 1 6.0839844 12.779297 A 0.5 0.5 0 0 1 6.2226562 12.085938 L 8.5976562 10.501953 L 6.2226562 8.9179688 A 0.5 0.5 0 0 1 6.0839844 8.2246094 A 0.5 0.5 0 0 1 6.4804688 8.0019531 z M 10 13.001953 L 14 13.001953 L 14 14.001953 L 10 14.001953 L 10 13.001953 z " />
</svg>

<svg height="24" width="24" xmlns="http://www.w3.org/2000/svg"><path style="color:#000;fill:gray" d="M5.455 4.002c-.968.009-1.718.073-2.338.445-.413.248-.72.656-.888 1.162C2.059 6.116 2 6.724 2 7.502v9c0 .778.06 1.386.229 1.893.168.506.475.914.888 1.162.827.496 1.883.445 3.383.445h11c1.5 0 2.556.05 3.383-.445.413-.248.72-.656.888-1.162.17-.507.229-1.115.229-1.893v-9c0-.778-.06-1.386-.229-1.893-.168-.506-.475-.914-.888-1.162-.827-.496-1.883-.445-3.383-.445h-11c-.375 0-.722-.003-1.045 0zm1.025 4a.5.5 0 0 1 .297.084l3 2a.5.5 0 0 1 0 .832l-3 2a.5.5 0 0 1-.693-.139.5.5 0 0 1 .139-.693l2.375-1.584-2.375-1.584a.5.5 0 0 1-.139-.693.5.5 0 0 1 .396-.223zm3.52 5h4v1h-4v-1z"/></svg>
